X:1
T:Az utcán
O:Szörényi-Bródy
M:4/4
L:1/4
K:Amaj
"A"cd"A"ee|"D"dc"D"BA/A/|"E"Bc"E"dd|"A"cA"A"BA|
w:Né-ha fur-csa han-gu-lat-ban az ut-cát já-rom egy-ma-gam-ban
"A"cd"A"ee|"D"dc"D"BA|"E"Bc"E"dd|"A"cA"A"BA|
w:Nin-csen sem-mi-hez se' ked-vem ér-zem azt, hogy nincs ez rend-ben
"E"B4|"E"zG"E"AB|:"A"c/cA/ "A"c/cA/|"D"d/dc/ "E"B/A/ B/A/:|
w:így Bár tud-nám, ho-va, de ho-va de ho-va, de ho-va me-gyek
